X:1
T:Gie The Lass Her Fairing
M:2/4
L:1/8
K:A
 z2 z A,| C3/2 E/2 AF| EC B,A,| CEF/2-G/2A/2-F/2| E2 A,A,| C3/2 E/2 AF|\
 EC B,A,| CEF/2-G/2A/2-F/2| E2 A,E| A3/2 B/2 cA| BG FE| A3/2 B/2 cA|\
B-G E3/2 E/2| AB c3/2 A/2| dB G/2B/2-G/2-F/2| E3/2 C/2 AF| E2 A, z|\
